third_party/noto/noto_2/emoji_u1f310.svg

<svg enable-background="new 0 0 128 128" version="1.1" viewBox="0 0 128 128" xmlns="http://www.w3.org/2000/svg"><radialGradient id="a" cx="65.025" cy="5.0371" r="105.92" gradientUnits="userSpaceOnUse"><stop stop-color="#01B3F7" offset=".2102"/><stop stop-color="#01B3F7" offset=".4574"/></radialGradient><path d="m113.28 28.59c-14.98-20.96-39.4-23.04-49.23-23.19-9.5-0.14-29.7 3.02-44.46 18.19-10.95 11.25-16.27 25.26-16.07 41.45 0.18 14.67 5.21 26.76 14.4 37.78 13.57 16.27 32.85 20.49 46.33 20.49 0.38 0 0.76 0 1.14-0.01 13.14-0.35 35.87-4.12 49.44-26.33 6-9.82 9.39-21.26 9.53-32.21 0.23-17.66-6.84-30.25-11.08-36.17zm3.9 31.27-11.5-0.03c-0.36-8.24-1.77-15.29-3.78-21.3l8.77 0.03c2.86 5.14 5.8 12.33 6.51 21.3zm-106.36 7.74 11.99 0.03c0.48 6.73 1.58 14.21 3.95 21.55h-9.75c-3.66-6.51-5.72-13.68-6.19-21.58zm57.04-55.86c3.54 1.33 13.82 6.04 21.36 18.76l-21.41-0.06 0.05-18.7zm-7.05 0.29v18.39l-22.01-0.06c8.24-12.98 19.93-17.6 22.01-18.33zm0 26.39v21.31l-30.23-0.07c0.2-8.44 1.78-15.47 4.13-21.31l26.1 0.07zm-38.29 21.21-11.61-0.03c0.69-7.72 3.13-14.89 6.99-21.31l8.13 0.02c-2.09 6.01-3.45 13.07-3.51 21.32zm8.23 8.02 30.06 0.07v21.46h-25.81c-2.16-5.87-3.71-12.97-4.25-21.53zm30.06 29.53v19.18c-4.06-1.3-14.65-5.84-22.15-19.18h22.15zm6.86 19.32 0.14-19.32h22.19c-6.85 13.28-17.1 18.07-22.33 19.32zm0.14-27.32v-21.44l29.63 0.07c-0.35 8.5-1.78 15.54-3.84 21.37h-25.79zm0-29.44v-21.3l25.36 0.07c2.28 5.83 3.88 12.85 4.26 21.3l-29.62-0.07zm37.48-29.19-6.69-0.02c-2.43-4.89-5.22-8.85-7.98-12.03 5.18 2.75 10.29 6.62 14.67 12.05zm-67.79-11.58c-2.75 3.02-5.55 6.77-7.99 11.35l-5.78-0.02c0.69-0.79 1.4-1.57 2.13-2.33 3.7-3.78 7.66-6.73 11.64-9zm-14.07 79.18c-0.28-0.32-0.55-0.65-0.83-0.97h7.33c2.14 4.47 4.88 8.74 8.38 12.6-5.37-2.88-10.55-6.73-14.88-11.63zm67.06 12.18c3-3.65 6.72-8.09 8.78-13.15h6.52c-4.04 5.09-10.33 10.34-15.3 13.15zm20.47-21.15h-8.67c2.24-7.35 3.16-14.78 3.41-21.35l11.51 0.03c-0.68 9.13-3.63 16.39-6.25 21.32z" fill="url(#a)"/><polygon points="93.65 39.75 67.8 39.67 67.81 37.17 92.74 37.29" fill="#188AFF"/><polygon points="60.81 39.65 34.23 39.59 35.18 37.12 60.81 37.15" fill="#188AFF"/><polygon points="60.81 68.96 30.83 68.91 30.64 66.4 60.81 66.46" fill="#188AFF"/><polygon points="97.39 69.03 67.81 68.97 67.81 66.47 97.51 66.58" fill="#188AFF"/><polygon points="117.09 69.08 105.63 69.09 105.74 66.57 117.32 66.6" fill="#188AFF"/><polygon points="111.3 39.72 102.31 39.77 101.51 37.35 110.07 37.41" fill="#188AFF"/><polygon points="60.81 98.41 39.37 98.4 37.97 96.06 60.85 95.92" fill="#188AFF"/><polygon points="89.37 98.34 67.79 98.41 67.81 95.91 90.66 95.98" fill="#188AFF"/><polygon points="30.52 98.36 23.73 98.48 21.72 96.2 29.53 96.19" fill="#188AFF"/><polygon points="22.89 68.86 10.89 68.85 10.71 66.34 22.75 66.4" fill="#188AFF"/><polygon points="25.62 39.55 17.18 39.51 18.56 37.08 26.45 37.06" fill="#188AFF"/><polygon points="104.73 98.46 98.71 98.41 99.77 96.05 106.67 96.09" fill="#188AFF"/><path d="m38.84 30.31 0.01-0.09c0.2-0.29 3.45-7.47 9.64-12.71 6.29-5.33 12.12-6.93 12.37-7l-0.05 2.65c-0.06 0.02-5.2 1.31-11.16 6.11-7.02 5.65-10.76 10.98-10.81 11.04z" fill="#188AFF"/><path d="m89.23 30.51c-0.03-0.05-2.51-4.47-9.45-10.16-5.51-4.51-11.86-7.34-11.93-7.37l0.03-2.6c0.3 0.12 6.88 2.97 12.52 8.03 6.36 5.7 8.66 11.69 8.78 11.91l0.05 0.19z" fill="#188AFF"/><path d="m105.27 30.52c-0.03-0.04-3.38-3.13-7.04-6.05-3.46-2.77-5.91-3.93-5.95-3.96l-2.54-3.11c0.2 0.1 5.83 2.92 9.4 6.02 3.53 3.07 5.94 6.8 6.06 6.95l0.07 0.15z" fill="#188AFF"/><path d="m23.74 30.3 0.03-0.1c0.11-0.13 2.1-3.23 5.56-6.46 4.21-3.92 8.89-5.73 9.05-5.82l-2.24 2.6c-0.04 0.02-1.8 0.64-6.19 4.17-3.5 2.82-6.18 5.58-6.21 5.61z" fill="#188AFF"/><path d="m64.11 124.55c-41.05 0-54.65-34.41-54.79-34.75l0.12 0.24c0.14 0.33 15.32 32.01 54.67 32.01h0.13c21.16-0.04 34.42-8.85 41.83-16.24 8.05-8.03 12.3-15.49 12.33-15.57l0.05-0.1c-0.13 0.34-11.93 34.33-54.2 34.41h-0.14z" fill="#188AFF"/></svg>

<?xml version="1.0" encoding="utf-8"?>
<!-- Generator: Adobe Illustrator 25.2.3, SVG Export Plug-In . SVG Version: 6.00 Build 0)  -->
<svg version="1.1" id="Layer_2" xmlns="http://www.w3.org/2000/svg" xmlns:xlink="http://www.w3.org/1999/xlink" x="0px" y="0px"
	 viewBox="0 0 128 128" style="enable-background:new 0 0 128 128;" xml:space="preserve">
<radialGradient id="SVGID_1_" cx="65.0251" cy="5.0371" r="105.9248" gradientUnits="userSpaceOnUse">
	<stop  offset="0.2102" style="stop-color:#01B3F7"/>
	<stop  offset="0.4574" style="stop-color:#01B3F7"/>
</radialGradient>
<path style="fill:url(#SVGID_1_);" d="M113.28,28.59C98.3,7.63,73.88,5.55,64.05,5.4c-9.5-0.14-29.7,3.02-44.46,18.19
	C8.64,34.84,3.32,48.85,3.52,65.04c0.18,14.67,5.21,26.76,14.4,37.78c13.57,16.27,32.85,20.49,46.33,20.49c0.38,0,0.76,0,1.14-0.01
	c13.14-0.35,35.87-4.12,49.44-26.33c6-9.82,9.39-21.26,9.53-32.21C124.59,47.1,117.52,34.51,113.28,28.59z M117.18,59.86l-11.5-0.03
	c-0.36-8.24-1.77-15.29-3.78-21.3l8.77,0.03C113.53,43.7,116.47,50.89,117.18,59.86z M10.82,67.6l11.99,0.03
	c0.48,6.73,1.58,14.21,3.95,21.55h-9.75C13.35,82.67,11.29,75.5,10.82,67.6z M67.86,11.74c3.54,1.33,13.82,6.04,21.36,18.76
	l-21.41-0.06L67.86,11.74z M60.81,12.03v18.39l-22.01-0.06C47.04,17.38,58.73,12.76,60.81,12.03z M60.81,38.42v21.31l-30.23-0.07
	c0.2-8.44,1.78-15.47,4.13-21.31L60.81,38.42z M22.52,59.63L10.91,59.6c0.69-7.72,3.13-14.89,6.99-21.31l8.13,0.02
	C23.94,44.32,22.58,51.38,22.52,59.63z M30.75,67.65l30.06,0.07v21.46H35C32.84,83.31,31.29,76.21,30.75,67.65z M60.81,97.18v19.18
	c-4.06-1.3-14.65-5.84-22.15-19.18H60.81z M67.67,116.5l0.14-19.32h22.19C83.15,110.46,72.9,115.25,67.67,116.5z M67.81,89.18V67.74
	l29.63,0.07c-0.35,8.5-1.78,15.54-3.84,21.37H67.81z M67.81,59.74V38.44l25.36,0.07c2.28,5.83,3.88,12.85,4.26,21.3L67.81,59.74z
	 M105.29,30.55l-6.69-0.02c-2.43-4.89-5.22-8.85-7.98-12.03C95.8,21.25,100.91,25.12,105.29,30.55z M37.5,18.97
	c-2.75,3.02-5.55,6.77-7.99,11.35l-5.78-0.02c0.69-0.79,1.4-1.57,2.13-2.33C29.56,24.19,33.52,21.24,37.5,18.97z M23.43,98.15
	c-0.28-0.32-0.55-0.65-0.83-0.97h7.33c2.14,4.47,4.88,8.74,8.38,12.6C32.94,106.9,27.76,103.05,23.43,98.15z M90.49,110.33
	c3-3.65,6.72-8.09,8.78-13.15h6.52C101.75,102.27,95.46,107.52,90.49,110.33z M110.96,89.18h-8.67c2.24-7.35,3.16-14.78,3.41-21.35
	l11.51,0.03C116.53,76.99,113.58,84.25,110.96,89.18z"/>
<g>
	<polygon style="fill:#188AFF;" points="93.65,39.75 67.8,39.67 67.81,37.17 92.74,37.29 	"/>
</g>
<g>
	<polygon style="fill:#188AFF;" points="60.81,39.65 34.23,39.59 35.18,37.12 60.81,37.15 	"/>
</g>
<g>
	<polygon style="fill:#188AFF;" points="60.81,68.96 30.83,68.91 30.64,66.4 60.81,66.46 	"/>
</g>
<g>
	<polygon style="fill:#188AFF;" points="97.39,69.03 67.81,68.97 67.81,66.47 97.51,66.58 	"/>
</g>
<g>
	<polygon style="fill:#188AFF;" points="117.09,69.08 105.63,69.09 105.74,66.57 117.32,66.6 	"/>
</g>
<g>
	<polygon style="fill:#188AFF;" points="111.3,39.72 102.31,39.77 101.51,37.35 110.07,37.41 	"/>
</g>
<g>
	<polygon style="fill:#188AFF;" points="60.81,98.41 39.37,98.4 37.97,96.06 60.85,95.92 	"/>
</g>
<g>
	<polygon style="fill:#188AFF;" points="89.37,98.34 67.79,98.41 67.81,95.91 90.66,95.98 	"/>
</g>
<g>
	<polygon style="fill:#188AFF;" points="30.52,98.36 23.73,98.48 21.72,96.2 29.53,96.19 	"/>
</g>
<g>
	<polygon style="fill:#188AFF;" points="22.89,68.86 10.89,68.85 10.71,66.34 22.75,66.4 	"/>
</g>
<g>
	<polygon style="fill:#188AFF;" points="25.62,39.55 17.18,39.51 18.56,37.08 26.45,37.06 	"/>
</g>
<g>
	<polygon style="fill:#188AFF;" points="104.73,98.46 98.71,98.41 99.77,96.05 106.67,96.09 	"/>
</g>
<g>
	<path style="fill:#188AFF;" d="M38.84,30.31l0.01-0.09c0.2-0.29,3.45-7.47,9.64-12.71c6.29-5.33,12.12-6.93,12.37-7l-0.05,2.65
		c-0.06,0.02-5.2,1.31-11.16,6.11C42.63,24.92,38.89,30.25,38.84,30.31z"/>
</g>
<g>
	<path style="fill:#188AFF;" d="M89.23,30.51c-0.03-0.05-2.51-4.47-9.45-10.16c-5.51-4.51-11.86-7.34-11.93-7.37l0.03-2.6
		c0.3,0.12,6.88,2.97,12.52,8.03c6.36,5.7,8.66,11.69,8.78,11.91L89.23,30.51z"/>
</g>
<g>
	<path style="fill:#188AFF;" d="M105.27,30.52c-0.03-0.04-3.38-3.13-7.04-6.05c-3.46-2.77-5.91-3.93-5.95-3.96l-2.54-3.11
		c0.2,0.1,5.83,2.92,9.4,6.02c3.53,3.07,5.94,6.8,6.06,6.95L105.27,30.52z"/>
</g>
<g>
	<path style="fill:#188AFF;" d="M23.74,30.3l0.03-0.1c0.11-0.13,2.1-3.23,5.56-6.46c4.21-3.92,8.89-5.73,9.05-5.82l-2.24,2.6
		c-0.04,0.02-1.8,0.64-6.19,4.17C26.45,27.51,23.77,30.27,23.74,30.3z"/>
</g>
<g>
	<path style="fill:#188AFF;" d="M64.11,124.55c-41.05,0-54.65-34.41-54.79-34.75l0.12,0.24c0.14,0.33,15.32,32.01,54.67,32.01
		c0.05,0,0.09,0,0.13,0c21.16-0.04,34.42-8.85,41.83-16.24c8.05-8.03,12.3-15.49,12.33-15.57l0.05-0.1
		c-0.13,0.34-11.93,34.33-54.2,34.41C64.2,124.55,64.15,124.55,64.11,124.55z"/>
</g>
</svg>
